img/iconmonstr-home-thin.svg

<svg width="24" height="24" xmlns="http://www.w3.org/2000/svg" fill-rule="evenodd" clip-rule="evenodd"><path d="M22 11.414v12.586h-20v-12.586l-1.293 1.293-.707-.707 12-12 12 12-.707.707-1.293-1.293zm-6 11.586h5v-12.586l-9-9-9 9v12.586h5v-9h8v9zm-1-7.889h-6v7.778h6v-7.778z"/></svg>

<svg width="24" height="24" viewBox="0 0 24 24" fill="none" xmlns="http://www.w3.org/2000/svg">
<g clip-path="url(#clip0_802_8)">
<path fill-rule="evenodd" clip-rule="evenodd" d="M22 11.414V24H2V11.414L0.707 12.707L0 12L12 0L24 12L23.293 12.707L22 11.414ZM16 23H21V10.414L12 1.414L3 10.414V23H8V14H16V23ZM15 15.111H9V22.889H15V15.111Z" fill="#E6E6E6"/>
</g>
<defs>
<clipPath id="clip0_802_8">
<rect width="24" height="24" fill="white"/>
</clipPath>
</defs>
</svg>
